X:1
T:Title
%%score ( 1 2 ) { 3 | 4 }
L:1/8
Q:1/4=110
M:3/4
K:A
V:1 treble nm="Grand Piano, Staff 1"
V:2 treble 
V:3 bass nm="Choir Pad, Fiat Lux, 66.46.664"
V:4 bass 
V:1
 E2 [DA]2 [DB]2 | [Cc]3 [DB] [DA]2 | [Ee]2 [Fd]2 [Ec]2 | z2 B2 z2 | [GB]2 [EG]2 [^DF]2 | E6 | %6
w: By~John~Bacchus~Dykes,~1875 * *||||||
 [GB]2 [FB]2 [Ec]2 | [Dd]3 [Ec] [FB]2 | [FA]2 [EA]2 [DB]2 | [Cc]3 [DB] [EA]2 | [Ee]2 [Fd]2 [Ec]2 | %11
w: |||||
 z2 z2 .G2 | E2 [EB]2 [EB]2 | [EA]6- | [EA]2 z2 z2 |] %15
w: ||||
V:2
 x6 | x6 | x6 | [^DB]2 E=D [Cc]2 | x6 | x6 | x6 | x6 | x6 | x6 | x6 | [^DB]3 [DA] D-[DF] | x6 | %13
 x6 | x6 |] %15
V:3
 C2 A,2 G,2 | A,3 B, C2 | A,2 A,2 A,2 | A,2 B,2 E2 | E2 B,2 A,2 | G,6 | B,2 F,2 G,^A, | B,3 C D2 | %8
 A,2 E,2 F,G, | A,3 B, C2 | A,2 A,2 A,2 | A,3 F, G,A, | G,2 D2 D2 | C6- | C2 z2 z2 |] %15
V:4
 A,2 F,2 E,2 | A,,3 A,, A,,2 | C,2 D,2 E,2 | F,2 G,2 A,2 | B,2 z2 B,,2 | E,6 | E,2 D,2 C,2 | %7
 B,,3 B,, B,,2 | D,2 C,2 B,,2 | A,,3 A,, A,,2 | C,2 D,2 E,2 | F,3 B,, B,,2 | %12
 E,2 [E,G,B,]2 [E,G,B,]2 | [A,,A,]6- | [A,,A,]2 z2 z2 |] %15

